X: 11061
T: Allegro
N: Illegible smudge at top that may be a title.
C: Bossi
B: "Man of Feeling", Gaetano Brandi, ed. p.106
F: http://archive.org/details/manoffeelingorge00rugg
Z: 2012 John Chambers <jc:trillian.mit.edu>
M: 2/4
L: 1/16
K: D
[|!p!\
A6d2 | .c2.d2.e2.c2 | d4A2d2 | .c2.d2.e2.c2 |\
d4z4 | !f!d'c'ba gfed | c2e2A2c2 | defg abc'd' |
c'2(e'2a2)z2 | !p!A6d2 | .c2.d2.e2.c2 | !p!(d4A2)d2 |\
c2d2e2c2 | d4z4 | !f!d'c'ba gfed | cdef gabc' |\
d'abg f2Te2{de} | d4z4 |]
%
%%center -

%%sep 2 1 500
%%sep 1 1 500

